svg/300/sharp/remove_selection-fill.svg

<svg xmlns="http://www.w3.org/2000/svg" width="48" height="48" viewBox="0 -960 960 960"><path d="M140.001-271.077v-82.231h45.384v82.231h-45.384Zm0-168.308v-82.23h45.384v82.23h-45.384Zm0-167.307v-82.231h45.384v82.231h-45.384Zm131.076 466.691v-45.384h82.231v45.384h-82.231Zm0-634.614v-45.384h82.231v45.384h-82.231Zm168.308 0v-45.384h82.23v45.384h-82.23Zm49.384 634.614-32.615-32.615 149.308-149.308-149.308-149.307 32.615-32.615 149.307 149.308 149.308-149.308 32.615 32.615-149.308 149.307 149.308 149.308-32.615 32.615-149.308-149.308-149.307 149.308Zm117.923-634.614v-45.384h82.231v45.384h-82.231Zm167.923 167.923v-82.231h45.384v82.231h-45.384ZM140.001-774.615v-45.384h45.384v45.384h-45.384Zm679.998 0h-45.384v-45.384h45.384v45.384ZM140.001-140.001v-45.384h45.384v45.384h-45.384Z"/></svg>

<svg xmlns="http://www.w3.org/2000/svg" width="48" height="48" viewBox="0 -960 960 960"><path d="M140-271.08v-82.23h45.39v82.23H140Zm0-168.3v-82.24h45.39v82.24H140Zm0-167.31v-82.23h45.39v82.23H140ZM271.08-140v-45.39h82.23V-140h-82.23Zm0-634.61V-820h82.23v45.39h-82.23Zm168.3 0V-820h82.24v45.39h-82.24ZM488.77-140l-32.62-32.62 149.31-149.3-149.31-149.31 32.62-32.62 149.31 149.31 149.3-149.31L820-471.23 670.69-321.92 820-172.62 787.38-140l-149.3-149.31L488.77-140Zm117.92-634.61V-820h82.23v45.39h-82.23Zm167.92 167.92v-82.23H820v82.23h-45.39ZM140-774.61V-820h45.39v45.39H140Zm680 0h-45.39V-820H820v45.39ZM140-140v-45.39h45.39V-140H140Z"/></svg>
